X: 43156
T: Winter Is Cancelled
R: slip jig
M: 9/8
K: Eminor
|:g2e fed BAF|G2d BAF GFD|BDE FEA GFE|A2B ^cBA def|
g2e fed BAF|G2d BAF GFD|BDE FEA GFE|ABc BAG E3:|
|:A2A ABc cBA|B2B Bcd dcB|cBd BeB dB^c|d2e fed agf|
g2e fed BAF|G2d BAF GFD|BDE FEA GFE|ABc BAG E3:|

